X:1
T:Miserere
T:Miserere
T:Jan Pieterszoon Sweelinck (1562-1621)
T:Kanon
C:Jan Pieterszoon Sweelinck (1562-1621)
%%score [ 1 2 ]
L:1/8
Q:1/4=70
M:4/4
K:F
V:1 treble nm="Stemmer"
V:2 treble nm="Stemmer"
V:1
"^1" A6 A2 | A2 B2 A2 A2 |"^2" d3 e f2 e2 | d4 z2 d2 | A2 d3 d c2- | c=B/A/ _B2 A2 A2 | d2 D2 E4 |1 %7
w: Mi- se-|re- re me- i,|Do- * * mi-|ne. Et|ex- au- di o-|* * * * ra- ti-|o- nem me-|
 D4 z4 :|2 !fermata!D4 z4 || A6 A2- | A A B B A2 !fermata!A2 |] %11
w: am.|\-am,|o- ra-|* ti- o- nem me- am.|
V:2
 D6 ^C2 | D2 G,2 D3 E | FEFG A2 E2 | ^F2 G4 =FE | D2 B,2 A,4 | z4 D2 D2 | F2 F G A2 A,2 |1 %7
w: Mi- se-|re- re me- *|* * * * * i,|Do- * * *|* mi- ne.|Et ex-|au- di o- ra- ti-|
 A2 G2 F2 D2 :|2 A A G2 !fermata!F4 || D2 D4 ^C2 | D2 G,2 D2 !fermata!D2 |] %11
w: o- nem me- am.|\-o- nem me- am,|o- ra- ti-|o nem me- am.|

